arrow-right-thin-circle-outline.svg

<svg fill="currentColor" viewBox="0 0 24 24"><path d="M20.03 12c0-4.41-3.62-8.03-8.03-8.03S3.97 7.59 3.97 12s3.62 8.03 8.03 8.03 8.03-3.62 8.03-8.03M22 12c0 5.54-4.46 10-10 10S2 17.54 2 12 6.46 2 12 2s10 4.46 10 10m-8.46 1v3l3.96-4-3.96-4v3H6.5v2"/></svg>

<svg  viewBox="0 0 24 24" fill="currentColor"><path  d="M20.03 12C20.03 7.59 16.41 3.97 12 3.97C7.59 3.97 3.97 7.59 3.97 12C3.97 16.41 7.59 20.03 12 20.03C16.41 20.03 20.03 16.41 20.03 12M22 12C22 17.54 17.54 22 12 22C6.46 22 2 17.54 2 12C2 6.46 6.46 2 12 2C17.54 2 22 6.46 22 12M13.54 13V16L17.5 12L13.54 8V11H6.5V13"/></svg>
